X: 28
M:2/4
L:1/16
K:Bb
u((3fga)|\
kb2(fe) dBAB | cdef dBAB | kb2(fe) dBAB | cBAc .B2((3fga) |
kb2(fe) dBAB | cdef dBAB | cg^fg agfg | fecA B2 :|
|:vdc|\
g^fga bagf | gag=f dcBc | dg^fg bgfg | =fedc B2 :|


